tools/download-figma-icons/icons/outlined-large/twitter.svg

<svg width="64" height="64" viewBox="0 0 64 64" fill="none" xmlns="http://www.w3.org/2000/svg">
<path fill-rule="evenodd" clip-rule="evenodd" d="M7.78979 46.4442L9.61979 47.6182C14.1248 50.5172 19.3408 52.0482 24.7048 52.0482C32.7158 52.2472 40.2548 48.8952 45.4938 42.9062C50.0868 37.6732 52.6468 30.9572 52.7058 23.9902V23.7262V23.7252V23.7242V23.7212C52.7058 23.2152 52.9568 22.7662 53.3418 22.4952C54.9218 21.2152 56.2918 19.7112 57.4158 18.0252L58.3758 16.5882L57.8818 16.8072C57.3228 17.0542 56.6658 16.9392 56.2268 16.5102C55.7878 16.0832 55.6528 15.4312 55.8868 14.8642C55.9928 14.6052 56.0918 14.3402 56.1788 14.0672L56.5808 12.8072L55.4498 13.4792C53.9268 14.3872 52.2768 15.0762 50.5488 15.5232C50.0708 15.6452 49.5608 15.5272 49.1878 15.2032C46.1918 12.5942 41.9218 11.9682 38.3088 13.6132C34.6948 15.2552 32.3528 18.8862 32.3438 22.8642C32.3428 23.2982 32.1518 23.7122 31.8228 23.9962C31.4938 24.2802 31.0598 24.4112 30.6268 24.3442C23.9098 23.3632 17.8488 19.9232 13.5578 14.6562L13.1018 14.0962L12.7338 14.7252C11.2428 17.2992 10.9458 20.3892 11.9218 23.1992C12.1258 23.7872 11.9458 24.4392 11.4698 24.8402C11.4188 24.8822 11.3648 24.9222 11.3098 24.9572L11.2778 26.8122C11.2808 29.0902 12.0598 31.3292 13.4688 33.1132C13.5798 33.2542 13.6658 33.4142 13.7208 33.5852L14.6928 36.6212C15.5158 39.1922 17.3628 41.3662 19.7638 42.5882C20.2818 42.8522 20.6018 43.3922 20.5818 43.9742C20.5618 44.5562 20.2078 45.0752 19.6728 45.3032C17.3078 46.3162 14.8108 46.8292 12.2548 46.8292C11.4778 46.8322 10.6978 46.7882 9.94779 46.6992L7.78979 46.4442ZM25.3488 55.0552C25.1228 55.0552 24.8968 55.0532 24.6708 55.0482H24.6688C18.7628 55.0482 12.9858 53.3512 7.99779 50.1422L0.688789 45.4532C0.101789 45.0752 -0.147211 44.3412 0.0877888 43.6842C0.322789 43.0262 0.993789 42.6082 1.67579 42.7012L10.2998 43.7202C10.9298 43.7942 11.5868 43.8312 12.2488 43.8292C13.4268 43.8292 14.5868 43.7002 15.7228 43.4442C13.9308 41.8742 12.5678 39.8262 11.8358 37.5362L10.9428 34.7512C9.22779 32.4782 8.28179 29.6722 8.27779 26.8142V26.6542L8.33979 23.2952C8.34579 22.9882 8.44379 22.6972 8.61579 22.4552C7.98279 19.3142 8.51179 16.0312 10.1408 13.2182L11.5998 10.7152C11.8468 10.2892 12.2878 10.0122 12.7778 9.97423C13.2678 9.93723 13.7468 10.1392 14.0588 10.5222L15.8838 12.7612C19.3558 17.0242 24.1338 19.9422 29.4678 21.0892C30.0808 16.6542 32.9308 12.7612 37.0678 10.8812C41.4948 8.87123 46.6838 9.48623 50.5148 12.4152C51.7058 12.0462 52.8478 11.5382 53.9168 10.9012L58.4458 8.21023C58.9798 7.89223 59.6578 7.93823 60.1448 8.32623C60.6328 8.71423 60.8298 9.36323 60.6408 9.95623L59.7688 12.6872L61.8918 11.7452C62.5048 11.4732 63.2178 11.6402 63.6468 12.1502C64.0768 12.6612 64.1178 13.3942 63.7468 13.9492L59.9108 19.6902C58.7318 21.4592 57.3168 23.0512 55.6988 24.4352C55.5348 31.9792 52.7208 39.2202 47.7498 44.8822C42.0748 51.3712 33.9408 55.0552 25.3488 55.0552Z" fill="black"/>
</svg>

<svg xmlns="http://www.w3.org/2000/svg" width="64" height="64" fill="none" viewBox="0 0 64 64"><path fill="currentColor" fill-rule="evenodd" d="m7.79 46.444 1.83 1.174a27.8 27.8 0 0 0 15.085 4.43c8.01.2 15.55-3.153 20.789-9.142a29.05 29.05 0 0 0 7.212-18.916v-.269c0-.506.25-.955.636-1.226a20 20 0 0 0 4.074-4.47l.96-1.437-.494.22a1.501 1.501 0 0 1-1.995-1.944q.16-.388.292-.797l.402-1.26-1.131.672a18.7 18.7 0 0 1-4.901 2.044 1.51 1.51 0 0 1-1.361-.32 10.18 10.18 0 0 0-10.88-1.59 10.21 10.21 0 0 0-5.964 9.251 1.503 1.503 0 0 1-1.717 1.48 27 27 0 0 1-17.07-9.688l-.455-.56-.368.63a10.21 10.21 0 0 0-.812 8.473 1.5 1.5 0 0 1-.612 1.758l-.032 1.855a10.23 10.23 0 0 0 2.19 6.301c.112.141.198.301.253.472l.972 3.036a10.24 10.24 0 0 0 5.07 5.967 1.499 1.499 0 0 1-.09 2.715 18.7 18.7 0 0 1-7.418 1.526 19 19 0 0 1-2.307-.13zm17.559 8.611q-.339 0-.678-.007h-.002a30.8 30.8 0 0 1-16.671-4.906l-7.31-4.689a1.5 1.5 0 0 1-.6-1.769c.235-.658.906-1.076 1.588-.983l8.624 1.02c.63.073 1.287.11 1.949.108q1.769 0 3.474-.385a13.25 13.25 0 0 1-3.887-5.908l-.893-2.785a13.26 13.26 0 0 1-2.665-7.937v-.16l.062-3.359c.006-.307.104-.598.276-.84a13.2 13.2 0 0 1 1.525-9.237l1.459-2.503a1.5 1.5 0 0 1 1.178-.74c.49-.038.969.164 1.28.547l1.826 2.24a24 24 0 0 0 13.584 8.327c.613-4.435 3.463-8.328 7.6-10.208a13.21 13.21 0 0 1 13.447 1.534 15.8 15.8 0 0 0 3.402-1.514l4.529-2.69a1.499 1.499 0 0 1 2.195 1.745l-.872 2.731 2.123-.942a1.5 1.5 0 0 1 1.855 2.204L59.91 19.69a23 23 0 0 1-4.212 4.745 32.04 32.04 0 0 1-7.95 20.447 29.7 29.7 0 0 1-22.4 10.173" clip-rule="evenodd"/></svg>
